X: 1
T: Michael Dwyer's
M: 6/8
L: 1/8
R: jig
K: Gmaj
|: ~B2G Adc | ~B2B BAG | ~B2G AFD | FGG ~GFD |
 ~B2G Adc |B2G ABc | dge ~f2d | cAF ~G3 :|
|: GBd ~g3 | fed cAF | GBd ~g3 |faf ~g3 |
faf ~g2e | fed cAF | DBB ~BAG | (3Bcd B cAF :|
|: DBB ~B2d | cAA AGF | ~G2G BAG | BdB cAF |
DBB ~B2d | cAA ABc | dge ~f2d | cAF ~G3 :|
